flaticon/household/office-chair-8.svg

<svg xmlns="http://www.w3.org/2000/svg" width="32" height="32" viewBox="0 0 24 24">
    <path d="M 18.398438 20.421875 L 18.398438 20 C 18.398438 19.988281 18.394531 19.976562 18.394531 19.964844 C 18.390625 19.9375 18.386719 19.914062 18.378906 19.886719 C 18.371094 19.863281 18.363281 19.839844 18.351562 19.816406 C 18.339844 19.792969 18.324219 19.773438 18.308594 19.753906 C 18.292969 19.734375 18.277344 19.714844 18.257812 19.699219 C 18.238281 19.683594 18.21875 19.671875 18.195312 19.65625 C 18.171875 19.644531 18.148438 19.632812 18.121094 19.625 C 18.109375 19.621094 18.101562 19.613281 18.089844 19.609375 L 13.199219 18.480469 L 13.199219 18 L 12.398438 18 L 12.398438 17.199219 L 13.199219 17.199219 L 13.199219 16 L 13.601562 16 L 13.601562 14.964844 L 14.917969 16.28125 C 14.953125 16.320312 14.996094 16.347656 15.046875 16.371094 C 15.097656 16.390625 15.148438 16.398438 15.199219 16.398438 L 16.398438 16.398438 C 16.621094 16.398438 16.800781 16.222656 16.800781 16 C 16.800781 15.777344 16.621094 15.601562 16.398438 15.601562 L 15.367188 15.601562 L 14.566406 14.800781 L 18.800781 14.800781 L 18.800781 9.570312 C 18.800781 8.925781 18.273438 8.398438 17.628906 8.398438 L 17.199219 8.398438 L 17.199219 8.035156 C 17.199219 5.980469 17.53125 4.285156 18.210938 2.847656 C 18.375 2.496094 18.433594 2.101562 18.378906 1.707031 C 18.242188 0.734375 17.363281 0 16.335938 0 L 7.664062 0 C 6.636719 0 5.757812 0.734375 5.621094 1.710938 C 5.566406 2.101562 5.625 2.496094 5.789062 2.851562 C 6.46875 4.285156 6.800781 5.980469 6.800781 8.035156 L 6.800781 8.398438 L 6.371094 8.398438 C 5.726562 8.398438 5.199219 8.925781 5.199219 9.570312 L 5.199219 14.800781 L 10.398438 14.800781 L 10.398438 16 L 10.800781 16 L 10.800781 17.199219 L 11.601562 17.199219 L 11.601562 18 L 10.800781 18 L 10.800781 18.480469 L 5.910156 19.609375 C 5.898438 19.613281 5.890625 19.621094 5.878906 19.625 C 5.851562 19.632812 5.828125 19.644531 5.804688 19.65625 C 5.78125 19.671875 5.761719 19.683594 5.742188 19.699219 C 5.722656 19.714844 5.707031 19.734375 5.691406 19.753906 C 5.675781 19.773438 5.660156 19.792969 5.648438 19.816406 C 5.636719 19.839844 5.628906 19.863281 5.621094 19.886719 C 5.613281 19.914062 5.609375 19.9375 5.605469 19.964844 C 5.605469 19.976562 5.601562 19.988281 5.601562 20 L 5.601562 20.421875 C 4.703125 20.519531 4 21.277344 4 22.199219 C 4 23.191406 4.808594 24 5.800781 24 C 6.792969 24 7.601562 23.191406 7.601562 22.199219 C 7.601562 21.417969 7.097656 20.757812 6.398438 20.511719 L 6.398438 20.316406 L 10.800781 19.304688 L 10.800781 19.433594 L 9.832031 20.402344 C 9.820312 20.402344 9.8125 20.398438 9.800781 20.398438 C 8.808594 20.398438 8 21.207031 8 22.199219 C 8 23.191406 8.808594 24 9.800781 24 C 10.792969 24 11.601562 23.191406 11.601562 22.199219 C 11.601562 21.539062 11.238281 20.96875 10.710938 20.65625 L 11.367188 20 L 12.632812 20 L 13.289062 20.65625 C 12.761719 20.96875 12.398438 21.539062 12.398438 22.199219 C 12.398438 23.191406 13.207031 24 14.199219 24 C 15.191406 24 16 23.191406 16 22.199219 C 16 21.207031 15.191406 20.398438 14.199219 20.398438 C 14.1875 20.398438 14.179688 20.402344 14.167969 20.402344 L 13.199219 19.433594 L 13.199219 19.304688 L 17.601562 20.316406 L 17.601562 20.511719 C 16.902344 20.757812 16.398438 21.417969 16.398438 22.199219 C 16.398438 23.191406 17.207031 24 18.199219 24 C 19.191406 24 20 23.191406 20 22.199219 C 20 21.277344 19.296875 20.519531 18.398438 20.421875 Z M 6.511719 2.507812 C 6.414062 2.296875 6.378906 2.058594 6.414062 1.820312 C 6.496094 1.238281 7.035156 0.800781 7.664062 0.800781 L 16.335938 0.800781 C 16.964844 0.800781 17.503906 1.238281 17.585938 1.820312 C 17.621094 2.058594 17.585938 2.296875 17.488281 2.507812 C 16.753906 4.050781 16.398438 5.859375 16.398438 8.035156 L 16.398438 8.460938 C 16.382812 8.464844 16.367188 8.472656 16.347656 8.480469 C 16.328125 8.488281 16.304688 8.5 16.28125 8.507812 C 16.238281 8.53125 16.195312 8.554688 16.15625 8.578125 C 16.136719 8.589844 16.117188 8.601562 16.101562 8.613281 C 15.988281 8.691406 15.890625 8.789062 15.8125 8.902344 C 15.800781 8.917969 15.789062 8.9375 15.777344 8.953125 C 15.753906 8.996094 15.730469 9.039062 15.710938 9.082031 C 15.699219 9.105469 15.691406 9.125 15.679688 9.148438 C 15.664062 9.195312 15.648438 9.242188 15.636719 9.289062 C 15.632812 9.3125 15.625 9.332031 15.621094 9.355469 C 15.609375 9.421875 15.601562 9.496094 15.601562 9.570312 L 15.601562 12 L 8.398438 12 L 8.398438 9.570312 C 8.398438 9.496094 8.390625 9.425781 8.378906 9.355469 C 8.375 9.332031 8.367188 9.308594 8.363281 9.289062 C 8.351562 9.242188 8.335938 9.199219 8.320312 9.152344 C 8.308594 9.128906 8.300781 9.105469 8.289062 9.078125 C 8.269531 9.042969 8.25 9.007812 8.230469 8.972656 C 8.214844 8.945312 8.199219 8.921875 8.183594 8.894531 C 8.164062 8.871094 8.144531 8.851562 8.128906 8.828125 C 8.03125 8.710938 7.914062 8.613281 7.777344 8.542969 C 7.773438 8.539062 7.769531 8.539062 7.765625 8.535156 C 7.714844 8.507812 7.660156 8.484375 7.605469 8.46875 C 7.601562 8.464844 7.601562 8.464844 7.601562 8.464844 L 7.601562 8.035156 C 7.601562 5.859375 7.246094 4.050781 6.511719 2.507812 Z M 6 14 L 6 9.570312 C 6 9.367188 6.164062 9.199219 6.371094 9.199219 L 7.230469 9.199219 C 7.433594 9.199219 7.601562 9.367188 7.601562 9.570312 L 7.601562 12.800781 L 16.398438 12.800781 L 16.398438 9.570312 C 16.398438 9.367188 16.566406 9.199219 16.800781 9.199219 L 17.628906 9.199219 C 17.835938 9.199219 18 9.367188 18 9.570312 L 18 14 Z M 12.800781 14.800781 L 12.800781 15.199219 L 11.199219 15.199219 L 11.199219 14.800781 Z M 12.398438 16 L 12.398438 16.398438 L 11.601562 16.398438 L 11.601562 16 Z M 6.800781 22.199219 C 6.800781 22.75 6.351562 23.199219 5.800781 23.199219 C 5.25 23.199219 4.800781 22.75 4.800781 22.199219 C 4.800781 21.648438 5.25 21.199219 5.800781 21.199219 C 6.351562 21.199219 6.800781 21.648438 6.800781 22.199219 Z M 9.800781 23.199219 C 9.25 23.199219 8.800781 22.75 8.800781 22.199219 C 8.800781 21.648438 9.25 21.199219 9.800781 21.199219 C 10.351562 21.199219 10.800781 21.648438 10.800781 22.199219 C 10.800781 22.75 10.351562 23.199219 9.800781 23.199219 Z M 15.199219 22.199219 C 15.199219 22.75 14.75 23.199219 14.199219 23.199219 C 13.648438 23.199219 13.199219 22.75 13.199219 22.199219 C 13.199219 21.648438 13.648438 21.199219 14.199219 21.199219 C 14.75 21.199219 15.199219 21.648438 15.199219 22.199219 Z M 11.601562 18.800781 L 12.398438 18.800781 L 12.398438 19.199219 L 11.601562 19.199219 Z M 18.199219 23.199219 C 17.648438 23.199219 17.199219 22.75 17.199219 22.199219 C 17.199219 21.648438 17.648438 21.199219 18.199219 21.199219 C 18.75 21.199219 19.199219 21.648438 19.199219 22.199219 C 19.199219 22.75 18.75 23.199219 18.199219 23.199219 Z M 18.199219 23.199219"/>
    <path d="M10 2.398438C10 2.621094 9.820312 2.800781 9.601562 2.800781 9.378906 2.800781 9.199219 2.621094 9.199219 2.398438 9.199219 2.179688 9.378906 2 9.601562 2 9.820312 2 10 2.179688 10 2.398438zM12.398438 2.398438C12.398438 2.621094 12.222656 2.800781 12 2.800781 11.777344 2.800781 11.601562 2.621094 11.601562 2.398438 11.601562 2.179688 11.777344 2 12 2 12.222656 2 12.398438 2.179688 12.398438 2.398438zM14.800781 2.398438C14.800781 2.621094 14.621094 2.800781 14.398438 2.800781 14.179688 2.800781 14 2.621094 14 2.398438 14 2.179688 14.179688 2 14.398438 2 14.621094 2 14.800781 2.179688 14.800781 2.398438zM10 4.398438C10 4.621094 9.820312 4.800781 9.601562 4.800781 9.378906 4.800781 9.199219 4.621094 9.199219 4.398438 9.199219 4.179688 9.378906 4 9.601562 4 9.820312 4 10 4.179688 10 4.398438zM12.398438 4.398438C12.398438 4.621094 12.222656 4.800781 12 4.800781 11.777344 4.800781 11.601562 4.621094 11.601562 4.398438 11.601562 4.179688 11.777344 4 12 4 12.222656 4 12.398438 4.179688 12.398438 4.398438zM14.800781 4.398438C14.800781 4.621094 14.621094 4.800781 14.398438 4.800781 14.179688 4.800781 14 4.621094 14 4.398438 14 4.179688 14.179688 4 14.398438 4 14.621094 4 14.800781 4.179688 14.800781 4.398438zM10 6.398438C10 6.621094 9.820312 6.800781 9.601562 6.800781 9.378906 6.800781 9.199219 6.621094 9.199219 6.398438 9.199219 6.179688 9.378906 6 9.601562 6 9.820312 6 10 6.179688 10 6.398438zM12.398438 6.398438C12.398438 6.621094 12.222656 6.800781 12 6.800781 11.777344 6.800781 11.601562 6.621094 11.601562 6.398438 11.601562 6.179688 11.777344 6 12 6 12.222656 6 12.398438 6.179688 12.398438 6.398438zM14.800781 6.398438C14.800781 6.621094 14.621094 6.800781 14.398438 6.800781 14.179688 6.800781 14 6.621094 14 6.398438 14 6.179688 14.179688 6 14.398438 6 14.621094 6 14.800781 6.179688 14.800781 6.398438zM10 8.398438C10 8.621094 9.820312 8.800781 9.601562 8.800781 9.378906 8.800781 9.199219 8.621094 9.199219 8.398438 9.199219 8.179688 9.378906 8 9.601562 8 9.820312 8 10 8.179688 10 8.398438zM12.398438 8.398438C12.398438 8.621094 12.222656 8.800781 12 8.800781 11.777344 8.800781 11.601562 8.621094 11.601562 8.398438 11.601562 8.179688 11.777344 8 12 8 12.222656 8 12.398438 8.179688 12.398438 8.398438zM14.800781 8.398438C14.800781 8.621094 14.621094 8.800781 14.398438 8.800781 14.179688 8.800781 14 8.621094 14 8.398438 14 8.179688 14.179688 8 14.398438 8 14.621094 8 14.800781 8.179688 14.800781 8.398438zM10 10.398438C10 10.621094 9.820312 10.800781 9.601562 10.800781 9.378906 10.800781 9.199219 10.621094 9.199219 10.398438 9.199219 10.179688 9.378906 10 9.601562 10 9.820312 10 10 10.179688 10 10.398438zM12.398438 10.398438C12.398438 10.621094 12.222656 10.800781 12 10.800781 11.777344 10.800781 11.601562 10.621094 11.601562 10.398438 11.601562 10.179688 11.777344 10 12 10 12.222656 10 12.398438 10.179688 12.398438 10.398438zM14.800781 10.398438C14.800781 10.621094 14.621094 10.800781 14.398438 10.800781 14.179688 10.800781 14 10.621094 14 10.398438 14 10.179688 14.179688 10 14.398438 10 14.621094 10 14.800781 10.179688 14.800781 10.398438zM14.800781 10.398438"/>
</svg>

<svg xmlns="http://www.w3.org/2000/svg" width="32" height="32" viewBox="0 0 24 24">
    <path d="M18.398 20.422V20c0-.012-.003-.023-.003-.035a.553.553 0 0 0-.043-.149c-.012-.023-.028-.043-.043-.062-.016-.02-.032-.04-.051-.055-.02-.015-.04-.027-.063-.043a.423.423 0 0 0-.074-.031c-.012-.004-.02-.012-.031-.016L13.2 18.48V18h-.802v-.8h.801V16h.403v-1.035l1.316 1.316c.035.04.078.067.129.09.05.02.101.027.152.027h1.2a.398.398 0 1 0 0-.796h-1.032l-.8-.801H18.8V9.57c0-.645-.528-1.173-1.172-1.173h-.43v-.363c0-2.055.332-3.75 1.012-5.187.164-.352.223-.746.168-1.141C18.242.734 17.363 0 16.336 0H7.664C6.637 0 5.758.734 5.621 1.71c-.055.392.004.786.168 1.142.68 1.433 1.012 3.128 1.012 5.183v.363h-.43c-.644 0-1.172.528-1.172 1.172v5.23h5.2V16h.402v1.2h.8v.8h-.8v.48l-4.89 1.13c-.013.003-.02.011-.032.015-.027.008-.05.02-.074.031-.024.016-.043.028-.063.043-.02.016-.035.035-.05.055-.016.02-.032.039-.044.062a.522.522 0 0 0-.043.149c0 .012-.003.023-.003.035v.422A1.794 1.794 0 0 0 4 22.199C4 23.191 4.809 24 5.8 24c.993 0 1.802-.809 1.802-1.8 0-.782-.504-1.442-1.204-1.688v-.196l4.403-1.011v.129l-.969.968c-.012 0-.02-.004-.031-.004-.992 0-1.801.809-1.801 1.801C8 23.191 8.809 24 9.8 24c.993 0 1.802-.809 1.802-1.8 0-.66-.364-1.231-.891-1.544l.656-.656h1.266l.656.656c-.527.313-.89.883-.89 1.543 0 .992.808 1.801 1.8 1.801S16 23.191 16 22.2c0-.993-.809-1.802-1.8-1.802-.012 0-.02.004-.032.004l-.969-.968v-.13l4.403 1.012v.196c-.7.246-1.204.906-1.204 1.687 0 .992.809 1.801 1.801 1.801.992 0 1.801-.809 1.801-1.8 0-.923-.703-1.68-1.602-1.778zM6.512 2.508c-.098-.211-.133-.45-.098-.688.082-.582.621-1.02 1.25-1.02h8.672c.629 0 1.168.438 1.25 1.02.035.239 0 .477-.098.688-.734 1.543-1.09 3.351-1.09 5.527v.426c-.015.004-.03.012-.05.02-.02.007-.043.019-.067.027-.043.023-.086.047-.125.07a1.13 1.13 0 0 0-.344.324c-.011.016-.023.036-.035.051a2.018 2.018 0 0 0-.066.129c-.012.023-.02.043-.031.066a1.93 1.93 0 0 0-.043.141c-.004.024-.012.043-.016.066-.012.067-.02.141-.02.215V12H8.399V9.57c0-.074-.007-.144-.02-.215-.003-.023-.01-.046-.015-.066-.011-.047-.027-.09-.043-.137-.011-.023-.02-.047-.03-.074l-.06-.105c-.015-.028-.03-.051-.046-.078-.02-.024-.04-.043-.055-.067a1.13 1.13 0 0 0-.352-.285l-.011-.008a.816.816 0 0 0-.16-.066l-.004-.004v-.43c0-2.176-.356-3.984-1.09-5.527zM6 14V9.57a.37.37 0 0 1 .371-.37h.86c.203 0 .37.167.37.37v3.23h8.797V9.57c0-.203.168-.37.403-.37h.828a.37.37 0 0 1 .371.37V14zm6.8.8v.4h-1.6v-.4zm-.402 1.2v.398h-.796V16zm-5.597 6.2c0 .55-.45 1-1 1-.551 0-1-.45-1-1 0-.552.449-1 1-1 .55 0 1 .448 1 1zm3 1c-.551 0-1-.45-1-1 0-.552.449-1 1-1 .55 0 1 .448 1 1 0 .55-.45 1-1 1zm5.398-1c0 .55-.449 1-1 1-.55 0-1-.45-1-1 0-.552.45-1 1-1 .551 0 1 .448 1 1zm-3.597-3.4h.796v.4h-.796zm6.597 4.4c-.55 0-1-.45-1-1 0-.552.45-1 1-1 .551 0 1 .448 1 1 0 .55-.449 1-1 1zm0 0"/>
    <path d="M10 2.398a.401.401 0 1 1-.802.003.401.401 0 0 1 .802-.003zm0 0M12.398 2.398a.398.398 0 1 1-.796 0 .398.398 0 1 1 .796 0zm0 0M14.8 2.398a.401.401 0 1 1 0 0zm0 0M10 4.398a.401.401 0 1 1-.802.003.401.401 0 0 1 .802-.003zm0 0M12.398 4.398a.398.398 0 1 1-.796 0 .398.398 0 1 1 .796 0zm0 0M14.8 4.398a.401.401 0 1 1 0 0zm0 0M10 6.398a.401.401 0 1 1-.802.003.401.401 0 0 1 .802-.003zm0 0M12.398 6.398a.398.398 0 1 1-.796 0 .398.398 0 1 1 .796 0zm0 0M14.8 6.398a.401.401 0 1 1 0 0zm0 0M10 8.398a.401.401 0 1 1-.802.003.401.401 0 0 1 .802-.003zm0 0M12.398 8.398a.398.398 0 1 1-.796 0 .398.398 0 1 1 .796 0zm0 0M14.8 8.398a.401.401 0 1 1 0 0zm0 0M10 10.398a.401.401 0 1 1-.802.003.401.401 0 0 1 .802-.003zm0 0M12.398 10.398a.398.398 0 1 1-.796 0 .398.398 0 1 1 .796 0zm0 0M14.8 10.398a.401.401 0 1 1 0 0zm0 0"/>
</svg>
